X:1
T:Title
%%score { 1 | 2 }
L:1/8
Q:1/4=100
M:6/8
K:Ab
V:1 treble nm="Grand Piano"
V:2 bass 
V:1
 [Ec]>[Ec][Ec] [Ec]>[EB][EA] | A3 G3 | d[Gd][Gd] [Gc]2 [GB] | e6 | c>cc c>BA | A3 G3 | %6
w: Robert~Harkness * * * * *||||||
 [Gd][Gc][GB] [Ge]2 [DEG] | [CEA]6 |] %8
w: ||
V:2
 [A,,A,]>[A,,A,][A,,A,] [A,,A,]>[B,,G,][C,A,] | [E,CE]3 [E,B,E]3 | %2
 [E,G,E][E,B,][E,B,] [E,E]2 [E,D] | [A,CA]6 | [A,EA]>[A,EA][A,EA] [A,EA]>[K:bass][A,DE][A,CE] | %5
 [E,CE]3 [E,B,E]3 | [E,B,][E,E][E,D] [E,B,]2 E, | A,,6 |] %8

